crutransfer-app/src/assets/logos/black.svg

<svg width="328" height="105" viewBox="0 0 328 105" fill="none" xmlns="http://www.w3.org/2000/svg">
<g clip-path="url(#clip0)">
<path d="M154.8 28.2L168.2 65.2L181.6 28.2H193L173.5 77.2H162.1L142.8 28.2C142.8 28.2 154.8 28.2 154.8 28.2Z" fill="#0F0F0F"/>
<path d="M209.5 28.2V77.2H198.4V28.2C198.4 28.2 209.5 28.2 209.5 28.2Z" fill="#0F0F0F"/>
<path d="M257.6 28.2V37.4H231.3V48H255V57.2H231.4V68H258.4V77.2H220.3V28.2C220.3 28.2 257.6 28.2 257.6 28.2Z" fill="#0F0F0F"/>
<path d="M277.2 28.2L301 59.7V28.2H311.5V77.2H301.4L277.7 45.8V77.2H267.1V28.2C267.1 28.2 277.2 28.2 277.2 28.2Z" fill="#0F0F0F"/>
<path d="M47.1 79.6L54.5 93.4C60.3 89.8 66 86 71.6 82L48.4 77.7C47 77.5 46.4 78.3 47.1 79.6Z" fill="url(#paint0_linear)"/>
<path d="M38.9 76C38.6 75.9 37.5 76.6 36.3 77.4L20.2 89.4C18.6 101.6 28.7 108.5 42.3 100.5C44.9 99.1 47.5 97.6 50 96.1L40.6 78.4C39.9 77.1 39.1 76.1 38.9 76Z" fill="url(#paint1_linear)"/>
<path d="M84.9 41.4L75.4 48.4C74.3 49.2 74.1 50.8 75.2 51.8L91.1 67.7C101.1 60.3 102.4 50.2 95.9 41.8L89.5 40.4C88.1 40.1 86 40.5 84.9 41.4Z" fill="url(#paint2_linear)"/>
<path d="M71 54.9C70 53.9 68.2 53.8 67.1 54.6L46.1 70.2C45 71 45.2 72 46.6 72.2L77.5 77.9C80.7 75.6 83.8 73.2 86.9 70.8L71 54.9Z" fill="url(#paint3_linear)"/>
<path d="M77.7 37.8L59.2 33.8C57.8 33.5 57.5 34.1 58.5 35.1L67.8 44.4C68.8 45.4 70.6 45.5 71.7 44.7L78.1 39.9C79.3 39.1 79.1 38.1 77.7 37.8Z" fill="url(#paint4_linear)"/>
<path d="M41.3 25.2L21.8 5.70001C19.4 9.70001 19.3 15.7 22.4 22.5L40.5 26.4C42 26.8 42.3 26.2 41.3 25.2Z" fill="url(#paint5_linear)"/>
<path d="M35.1 68L26.6 52C26.6 57.4 26.2 62.9 25.5 68.2L33.8 69.7C35.1 70.1 35.7 69.2 35.1 68Z" fill="url(#paint6_linear)"/>
<path d="M55 29.6L81.2 35.3C82.6 35.6 84.7 35.2 85.8 34.3L86.7 33.6C72.4 22.7 58.1 12.8 42.3 4.1C35.5 0.0999992 29.5 -0.100001 25.5 2.1L50.6 27.2C51.6 28.2 53.6 29.3 55 29.6Z" fill="url(#paint7_linear)"/>
<path d="M28.9 74.2L24.6 73.4C24.1 76 23.5 78.6 22.8 81.2L29.4 76.3C30.5 75.3 30.3 74.4 28.9 74.2Z" fill="url(#paint8_linear)"/>
<path d="M39.5 65.4C40.2 66.7 41.6 67 42.8 66.1L63.3 50.8C64.4 50 64.6 48.4 63.5 47.4L49.2 33.1C48.2 32.1 46.2 31 44.8 30.7L23.4 26.1C24.5 30.5 25.3 35.1 25.8 39.7L39.5 65.4Z" fill="url(#paint9_linear)"/>
<path d="M167.491 97C162.549 97 158.213 94.9308 154.482 90.7925C150.8 86.6542 147.966 80.7289 145.98 73.0166C143.993 65.3043 143 56.2752 143 45.9295C143 35.5837 143.993 26.6017 145.98 18.9834C147.966 11.2711 150.8 5.34578 154.482 1.20747C158.213 -2.93084 162.549 -5 167.491 -5C170.688 -5 173.692 -4.05947 176.502 -2.17842C179.312 -0.39142 181.807 2.24205 183.987 5.722C184.617 6.66252 185.053 7.65007 185.295 8.68465C185.538 9.71923 185.659 10.9889 185.659 12.4938C185.659 14.5629 185.368 16.3029 184.787 17.7137C184.205 19.1245 183.503 19.8299 182.679 19.8299C181.71 19.8299 180.717 19.1715 179.7 17.8548C177.616 14.8451 175.678 12.7759 173.886 11.6473C172.093 10.4246 170.107 9.81328 167.927 9.81328C162.888 9.81328 159.061 12.87 156.444 18.9834C153.877 25.0968 152.593 34.0788 152.593 45.9295C152.593 57.8741 153.877 66.9032 156.444 73.0166C159.061 79.13 162.888 82.1867 167.927 82.1867C170.01 82.1867 171.924 81.5754 173.668 80.3527C175.46 79.13 177.471 77.0609 179.7 74.1452C180.184 73.5809 180.669 73.1107 181.153 72.7344C181.638 72.3582 182.146 72.1701 182.679 72.1701C183.503 72.1701 184.205 72.8755 184.787 74.2863C185.368 75.6971 185.659 77.4371 185.659 79.5062C185.659 80.917 185.538 82.1867 185.295 83.3154C185.053 84.3499 184.617 85.3375 183.987 86.278C181.807 89.758 179.312 92.4385 176.502 94.3195C173.692 96.1065 170.688 97 167.491 97Z" fill="black"/>
<path d="M212.892 25.332C214.151 25.1438 215.144 25.6611 215.871 26.8838C216.598 28.1065 216.961 29.9405 216.961 32.3859C216.961 34.9253 216.646 36.8064 216.017 38.029C215.387 39.2517 214.248 40.0512 212.601 40.4274L210.421 40.8506C207.562 41.4149 205.455 43.296 204.098 46.4938C202.79 49.6916 202.136 53.6888 202.136 58.4855V88.112C202.136 90.8396 201.7 92.9557 200.828 94.4606C199.956 95.8714 198.866 96.5768 197.558 96.5768C196.25 96.5768 195.16 95.8714 194.287 94.4606C193.464 92.9557 193.052 90.8396 193.052 88.112V33.5145C193.052 30.8811 193.464 28.8589 194.287 27.4481C195.16 26.0373 196.225 25.332 197.485 25.332C198.745 25.332 199.762 26.0373 200.537 27.4481C201.312 28.7649 201.7 30.6929 201.7 33.2324V38.8755C202.621 34.7372 203.977 31.5394 205.77 29.2822C207.611 27.0249 209.646 25.7552 211.874 25.473L212.892 25.332Z" fill="black"/>
<path d="M248.924 25.332C250.329 25.332 251.443 26.0844 252.266 27.5892C253.09 29.0941 253.502 31.1162 253.502 33.6556V88.3942C253.502 90.8396 253.066 92.8147 252.194 94.3195C251.37 95.8243 250.28 96.5768 248.924 96.5768C247.615 96.5768 246.574 95.8714 245.799 94.4606C245.023 93.0498 244.636 91.1217 244.636 88.6763V85.1494C243.522 88.9115 242.02 91.8271 240.13 93.8963C238.241 95.8714 236.109 96.8589 233.735 96.8589C225.014 96.8589 220.654 87.3596 220.654 68.361V33.6556C220.654 31.1162 221.066 29.0941 221.889 27.5892C222.713 26.0844 223.803 25.332 225.16 25.332C226.565 25.332 227.679 26.0844 228.503 27.5892C229.326 29.0941 229.738 31.1162 229.738 33.6556V68.5021C229.738 73.3928 230.247 77.0138 231.264 79.3651C232.282 81.7165 233.88 82.8921 236.061 82.8921C238.58 82.8921 240.59 81.2932 242.092 78.0954C243.643 74.8036 244.418 70.4772 244.418 65.1162V33.6556C244.418 31.1162 244.83 29.0941 245.653 27.5892C246.477 26.0844 247.567 25.332 248.924 25.332Z" fill="black"/>
<path d="M276.782 96.4357C275.329 96.4357 274.166 95.6362 273.294 94.0373C272.47 92.3444 272.058 90.1342 272.058 87.4066V11.2241H258.832C255.925 11.2241 254.472 8.73168 254.472 3.74689C254.472 -1.2379 255.925 -3.73029 258.832 -3.73029H294.659C297.566 -3.73029 299.02 -1.2379 299.02 3.74689C299.02 8.73168 297.566 11.2241 294.659 11.2241H281.433V87.4066C281.433 90.1342 280.997 92.3444 280.125 94.0373C279.301 95.6362 278.187 96.4357 276.782 96.4357Z" fill="black"/>
<path d="M317.926 25.332C319.186 25.1438 320.179 25.6611 320.906 26.8838C321.632 28.1065 321.996 29.9405 321.996 32.3859C321.996 34.9253 321.681 36.8064 321.051 38.029C320.421 39.2517 319.283 40.0512 317.635 40.4274L315.455 40.8506C312.597 41.4149 310.489 43.296 309.133 46.4938C307.825 49.6916 307.171 53.6888 307.171 58.4855V88.112C307.171 90.8396 306.734 92.9557 305.862 94.4606C304.99 95.8714 303.9 96.5768 302.592 96.5768C301.284 96.5768 300.194 95.8714 299.322 94.4606C298.498 92.9557 298.086 90.8396 298.086 88.112V33.5145C298.086 30.8811 298.498 28.8589 299.322 27.4481C300.194 26.0373 301.26 25.332 302.519 25.332C303.779 25.332 304.797 26.0373 305.572 27.4481C306.347 28.7649 306.734 30.6929 306.734 33.2324V38.8755C307.655 34.7372 309.012 31.5394 310.804 29.2822C312.645 27.0249 314.68 25.7552 316.909 25.473L317.926 25.332Z" fill="black"/>
<path d="M341.171 25.0498C346.113 25.0498 349.771 27.4481 352.145 32.2448C354.567 36.9474 355.778 44.1425 355.778 53.8299V88.2531C355.778 90.7925 355.391 92.8147 354.615 94.3195C353.84 95.7303 352.774 96.4357 351.418 96.4357C350.158 96.4357 349.117 95.6833 348.293 94.1784C347.518 92.6736 347.13 90.6985 347.13 88.2531V85.1494C346.307 88.8174 344.998 91.686 343.206 93.7552C341.462 95.8243 339.427 96.8589 337.101 96.8589C334.727 96.8589 332.571 95.9184 330.634 94.0373C328.696 92.1563 327.169 89.5699 326.055 86.278C324.941 82.9862 324.384 79.3181 324.384 75.2739C324.384 70.195 325.038 66.1978 326.346 63.2822C327.702 60.3665 329.883 58.2503 332.886 56.9336C335.89 55.6169 340.032 54.9585 345.313 54.9585H347.13V51.7137C347.13 47.1051 346.621 43.7663 345.604 41.6971C344.587 39.5339 342.939 38.4523 340.662 38.4523C339.257 38.4523 337.828 38.8755 336.375 39.722C334.921 40.4744 333.201 41.603 331.215 43.1079C329.955 44.3306 329.035 44.9419 328.453 44.9419C327.581 44.9419 326.855 44.3306 326.273 43.1079C325.74 41.8852 325.474 40.2863 325.474 38.3112C325.474 36.7123 325.668 35.3485 326.055 34.2199C326.491 32.9972 327.194 31.8686 328.163 30.834C329.858 29.047 331.869 27.6362 334.194 26.6017C336.568 25.5671 338.894 25.0498 341.171 25.0498ZM338.918 84.1618C341.341 84.1618 343.303 82.61 344.805 79.5062C346.355 76.3084 347.13 72.2172 347.13 67.2324V64.2697H345.822C342.576 64.2697 340.057 64.5519 338.264 65.1162C336.472 65.6805 335.188 66.668 334.412 68.0788C333.637 69.4896 333.25 71.4177 333.25 73.8631C333.25 76.8728 333.783 79.3651 334.849 81.3403C335.963 83.2213 337.319 84.1618 338.918 84.1618Z" fill="black"/>
<path d="M385.649 25.0498C389.913 25.0498 393.086 27.4011 395.169 32.1037C397.253 36.8064 398.294 43.9073 398.294 53.4066V88.112C398.294 90.7455 397.883 92.8147 397.059 94.3195C396.284 95.8243 395.194 96.5768 393.789 96.5768C392.384 96.5768 391.269 95.8243 390.446 94.3195C389.622 92.8147 389.21 90.7455 389.21 88.112V54.3942C389.21 49.0332 388.677 45.13 387.612 42.6846C386.594 40.2393 384.971 39.0166 382.742 39.0166C380.126 39.0166 378.019 40.6155 376.42 43.8133C374.87 47.0111 374.094 51.2905 374.094 56.6515V88.112C374.094 90.7455 373.683 92.8147 372.859 94.3195C372.035 95.8243 370.921 96.5768 369.516 96.5768C368.111 96.5768 366.997 95.8243 366.173 94.3195C365.398 92.8147 365.01 90.7455 365.01 88.112V33.5145C365.01 31.0692 365.422 29.0941 366.246 27.5892C367.069 26.0844 368.184 25.332 369.589 25.332C370.848 25.332 371.866 26.0844 372.641 27.5892C373.465 29 373.876 30.8811 373.876 33.2324V37.0415C375.088 33.1853 376.711 30.2227 378.746 28.1535C380.78 26.0844 383.082 25.0498 385.649 25.0498Z" fill="black"/>
<path d="M420.384 96.8589C415.103 96.8589 410.84 94.8368 407.594 90.7925C406.043 89.0055 405.268 86.4661 405.268 83.1743C405.268 81.2932 405.535 79.7884 406.068 78.6598C406.6 77.4371 407.254 76.8257 408.03 76.8257C408.853 76.8257 409.992 77.5781 411.445 79.083C412.996 80.4938 414.401 81.5754 415.66 82.3278C416.968 83.0802 418.616 83.4564 420.602 83.4564C422.637 83.4564 424.211 82.7981 425.326 81.4813C426.488 80.1646 427.07 78.3306 427.07 75.9793C427.07 74.3804 426.828 73.1106 426.343 72.1701C425.907 71.2296 425.083 70.3831 423.872 69.6307C422.709 68.7842 420.917 67.8437 418.495 66.8091C414.183 65.1162 411.082 62.7178 409.192 59.6141C407.351 56.5104 406.431 52.231 406.431 46.7759C406.431 42.6376 407.061 38.9225 408.32 35.6307C409.58 32.2448 411.3 29.6584 413.48 27.8714C415.709 25.9903 418.228 25.0498 421.038 25.0498C423.073 25.0498 425.035 25.5671 426.925 26.6017C428.814 27.5422 430.51 28.953 432.012 30.834C433.562 32.7151 434.337 35.2075 434.337 38.3112C434.337 40.1923 434.071 41.7911 433.538 43.1079C433.005 44.3306 432.351 44.9419 431.576 44.9419C431.043 44.9419 430.51 44.7538 429.977 44.3776C429.492 43.9073 428.862 43.249 428.087 42.4025C426.682 40.9917 425.471 39.9571 424.454 39.2988C423.436 38.5463 422.177 38.1701 420.675 38.1701C418.882 38.1701 417.453 38.8755 416.387 40.2863C415.37 41.6971 414.861 43.6252 414.861 46.0705C414.861 48.4219 415.394 50.2089 416.46 51.4315C417.526 52.6542 419.585 53.8769 422.637 55.0996C425.883 56.4163 428.426 57.9212 430.267 59.6141C432.108 61.3071 433.417 63.4232 434.192 65.9627C435.015 68.5021 435.427 71.7469 435.427 75.6971C435.427 82.0927 434.046 87.2185 431.285 91.0747C428.572 94.9308 424.938 96.8589 420.384 96.8589Z" fill="black"/>
<path d="M460.743 9.39004C458.514 9.6722 456.891 10.9889 455.874 13.3402C454.856 15.6916 454.348 19.0775 454.348 23.4979V26.7427H460.525C463.238 26.7427 464.594 28.953 464.594 33.3734C464.594 37.7939 463.238 40.0042 460.525 40.0042H454.348V88.112C454.348 90.8396 453.912 92.9087 453.039 94.3195C452.216 95.7303 451.15 96.4357 449.842 96.4357C448.534 96.4357 447.444 95.7303 446.572 94.3195C445.7 92.9087 445.264 90.8396 445.264 88.112V40.0042H441.63C438.917 40.0042 437.56 37.7939 437.56 33.3734C437.56 28.953 438.917 26.7427 441.63 26.7427H445.264V25.7552C445.264 16.9142 446.45 10.0014 448.824 5.0166C451.247 -0.0622375 454.638 -2.93084 458.999 -3.58921L460.888 -3.87137C462.826 -4.15353 464.183 -3.73029 464.958 -2.60166C465.781 -1.56708 466.193 0.0788366 466.193 2.3361C466.193 6.38036 465.006 8.63762 462.632 9.10789L460.743 9.39004Z" fill="black"/>
<path d="M496.608 76.8257C497.431 76.8257 498.085 77.4371 498.57 78.6598C499.103 79.8824 499.369 81.5284 499.369 83.5975C499.369 86.5131 498.473 88.9585 496.68 90.9336C495.033 92.7206 493.168 94.1784 491.085 95.3071C489.001 96.3416 487.015 96.8589 485.125 96.8589C479.409 96.8589 474.879 93.6611 471.536 87.2656C468.193 80.87 466.521 72.1231 466.521 61.0249C466.521 53.971 467.248 47.7165 468.702 42.2614C470.155 36.8064 472.19 32.574 474.806 29.5643C477.471 26.5546 480.474 25.0498 483.817 25.0498C487.015 25.0498 489.801 26.4136 492.175 29.1411C494.549 31.8686 496.39 35.7248 497.698 40.7095C499.006 45.6943 499.66 51.5726 499.66 58.3444C499.66 62.3887 498.739 64.4108 496.898 64.4108H475.46C475.751 70.9004 476.696 75.6971 478.294 78.8008C479.893 81.8105 482.219 83.3154 485.271 83.3154C486.821 83.3154 488.178 82.9391 489.341 82.1867C490.552 81.4343 491.908 80.3997 493.41 79.083C494.864 77.5781 495.929 76.8257 496.608 76.8257ZM484.035 37.4647C481.565 37.4647 479.578 38.9696 478.076 41.9793C476.623 44.9889 475.751 49.3154 475.46 54.9585H491.884C491.787 49.2213 491.06 44.8949 489.704 41.9793C488.347 38.9696 486.458 37.4647 484.035 37.4647Z" fill="black"/>
<path d="M526.93 25.332C528.19 25.1438 529.183 25.6611 529.91 26.8838C530.637 28.1065 531 29.9405 531 32.3859C531 34.9253 530.685 36.8064 530.055 38.029C529.425 39.2517 528.287 40.0512 526.64 40.4274L524.459 40.8506C521.601 41.4149 519.494 43.296 518.137 46.4938C516.829 49.6916 516.175 53.6888 516.175 58.4855V88.112C516.175 90.8396 515.739 92.9557 514.867 94.4606C513.995 95.8714 512.905 96.5768 511.596 96.5768C510.288 96.5768 509.198 95.8714 508.326 94.4606C507.503 92.9557 507.091 90.8396 507.091 88.112V33.5145C507.091 30.8811 507.503 28.8589 508.326 27.4481C509.198 26.0373 510.264 25.332 511.524 25.332C512.783 25.332 513.801 26.0373 514.576 27.4481C515.351 28.7649 515.739 30.6929 515.739 33.2324V38.8755C516.659 34.7372 518.016 31.5394 519.808 29.2822C521.649 27.0249 523.684 25.7552 525.913 25.473L526.93 25.332Z" fill="black"/>
</g>
<defs>
<linearGradient id="paint0_linear" x1="10.5955" y1="18.1556" x2="65.2646" y2="90.7038" gradientUnits="userSpaceOnUse">
<stop stop-color="#00365A"/>
<stop offset="0.25" stop-color="#00365A"/>
<stop offset="0.5706" stop-color="#054E80"/>
<stop offset="0.7346" stop-color="#075B93"/>
<stop offset="0.8391" stop-color="#054E80"/>
<stop offset="1" stop-color="#054E80"/>
</linearGradient>
<linearGradient id="paint1_linear" x1="-8.6692" y1="35.6166" x2="43.7451" y2="105.173" gradientUnits="userSpaceOnUse">
<stop stop-color="#00365A"/>
<stop offset="0.25" stop-color="#00365A"/>
<stop offset="0.5706" stop-color="#054E80"/>
<stop offset="0.7346" stop-color="#075B93"/>
<stop offset="0.8391" stop-color="#054E80"/>
<stop offset="1" stop-color="#054E80"/>
</linearGradient>
<linearGradient id="paint2_linear" x1="48.8008" y1="-1.95519" x2="99.9776" y2="65.9587" gradientUnits="userSpaceOnUse">
<stop stop-color="#00365A"/>
<stop offset="0.25" stop-color="#00365A"/>
<stop offset="0.5706" stop-color="#054E80"/>
<stop offset="0.7346" stop-color="#075B93"/>
<stop offset="0.8391" stop-color="#054E80"/>
<stop offset="1" stop-color="#054E80"/>
</linearGradient>
<linearGradient id="paint3_linear" x1="23.4109" y1="14.4363" x2="75.4391" y2="83.48" gradientUnits="userSpaceOnUse">
<stop stop-color="#00365A"/>
<stop offset="0.25" stop-color="#00365A"/>
<stop offset="0.5706" stop-color="#054E80"/>
<stop offset="0.7346" stop-color="#075B93"/>
<stop offset="0.8391" stop-color="#054E80"/>
<stop offset="1" stop-color="#054E80"/>
</linearGradient>
<linearGradient id="paint4_linear" x1="41.303" y1="0.522222" x2="94.3738" y2="70.9495" gradientUnits="userSpaceOnUse">
<stop stop-color="#00365A"/>
<stop offset="0.25" stop-color="#00365A"/>
<stop offset="0.5706" stop-color="#054E80"/>
<stop offset="0.7346" stop-color="#075B93"/>
<stop offset="0.8391" stop-color="#054E80"/>
<stop offset="1" stop-color="#054E80"/>
</linearGradient>
<linearGradient id="paint5_linear" x1="24.0927" y1="13.5239" x2="76.6169" y2="83.2259" gradientUnits="userSpaceOnUse">
<stop stop-color="#00365A"/>
<stop offset="0.25" stop-color="#00365A"/>
<stop offset="0.5706" stop-color="#054E80"/>
<stop offset="0.7346" stop-color="#075B93"/>
<stop offset="0.8391" stop-color="#054E80"/>
<stop offset="1" stop-color="#054E80"/>
</linearGradient>
<linearGradient id="paint6_linear" x1="2.3245" y1="28.7302" x2="53.9674" y2="97.2626" gradientUnits="userSpaceOnUse">
<stop stop-color="#00365A"/>
<stop offset="0.25" stop-color="#00365A"/>
<stop offset="0.5706" stop-color="#054E80"/>
<stop offset="0.7346" stop-color="#075B93"/>
<stop offset="0.8391" stop-color="#054E80"/>
<stop offset="1" stop-color="#054E80"/>
</linearGradient>
<linearGradient id="paint7_linear" x1="42.6647" y1="0.0704342" x2="96.1617" y2="71.0634" gradientUnits="userSpaceOnUse">
<stop stop-color="#00365A"/>
<stop offset="0.25" stop-color="#00365A"/>
<stop offset="0.5706" stop-color="#054E80"/>
<stop offset="0.7346" stop-color="#075B93"/>
<stop offset="0.8391" stop-color="#054E80"/>
<stop offset="1" stop-color="#054E80"/>
</linearGradient>
<linearGradient id="paint8_linear" x1="-5.17031" y1="36.0897" x2="44.4427" y2="101.929" gradientUnits="userSpaceOnUse">
<stop stop-color="#00365A"/>
<stop offset="0.25" stop-color="#00365A"/>
<stop offset="0.5706" stop-color="#054E80"/>
<stop offset="0.7346" stop-color="#075B93"/>
<stop offset="0.8391" stop-color="#054E80"/>
<stop offset="1" stop-color="#054E80"/>
</linearGradient>
<linearGradient id="paint9_linear" x1="20.6444" y1="15.4258" x2="72.4992" y2="84.2395" gradientUnits="userSpaceOnUse">
<stop stop-color="#00365A"/>
<stop offset="0.25" stop-color="#00365A"/>
<stop offset="0.5706" stop-color="#054E80"/>
<stop offset="0.7346" stop-color="#075B93"/>
<stop offset="0.8391" stop-color="#054E80"/>
<stop offset="1" stop-color="#054E80"/>
</linearGradient>
<clipPath id="clip0">
<rect width="327.9" height="104.6" fill="white"/>
</clipPath>
</defs>
</svg>

<?xml version="1.0" encoding="utf-8"?>
<!-- Generator: Adobe Illustrator 24.0.1, SVG Export Plug-In . SVG Version: 6.00 Build 0)  -->
<svg version="1.1" id="Layer_1" xmlns="http://www.w3.org/2000/svg" xmlns:xlink="http://www.w3.org/1999/xlink" x="0px" y="0px"
	 viewBox="0 0 327.9 104.6" style="enable-background:new 0 0 327.9 104.6;" xml:space="preserve">
<style type="text/css">
	.st0{fill:#0F0F0F;}
	.st1{fill:url(#SVGID_1_);}
	.st2{fill:url(#SVGID_2_);}
	.st3{fill:url(#SVGID_3_);}
	.st4{fill:url(#SVGID_4_);}
	.st5{fill:url(#SVGID_5_);}
	.st6{fill:url(#SVGID_6_);}
	.st7{fill:url(#SVGID_7_);}
	.st8{fill:url(#SVGID_8_);}
	.st9{fill:url(#SVGID_9_);}
	.st10{fill:url(#SVGID_10_);}
</style>
<title>logo-black</title>
<g>
	<g>
		<path class="st0" d="M154.8,28.2l13.4,37l13.4-37H193l-19.5,49h-11.4l-19.3-49C142.8,28.2,154.8,28.2,154.8,28.2z"/>
		<path class="st0" d="M209.5,28.2v49h-11.1v-49C198.4,28.2,209.5,28.2,209.5,28.2z"/>
		<path class="st0" d="M257.6,28.2v9.2h-26.3V48H255v9.2h-23.6V68h27v9.2h-38.1v-49C220.3,28.2,257.6,28.2,257.6,28.2z"/>
		<path class="st0" d="M277.2,28.2L301,59.7V28.2h10.5v49h-10.1l-23.7-31.4v31.4h-10.6v-49C267.1,28.2,277.2,28.2,277.2,28.2z"/>
	</g>
</g>
<g>
	<linearGradient id="SVGID_1_" gradientUnits="userSpaceOnUse" x1="10.5955" y1="18.1556" x2="65.2646" y2="90.7038">
		<stop  offset="0" style="stop-color:#00365A"/>
		<stop  offset="0.25" style="stop-color:#00365A"/>
		<stop  offset="0.5706" style="stop-color:#054E80"/>
		<stop  offset="0.7346" style="stop-color:#075B93"/>
		<stop  offset="0.8391" style="stop-color:#054E80"/>
		<stop  offset="1" style="stop-color:#054E80"/>
	</linearGradient>
	<path class="st1" d="M47.1,79.6l7.4,13.8C60.3,89.8,66,86,71.6,82l-23.2-4.3C47,77.5,46.4,78.3,47.1,79.6z"/>
	<linearGradient id="SVGID_2_" gradientUnits="userSpaceOnUse" x1="-8.6692" y1="35.6166" x2="43.7451" y2="105.1726">
		<stop  offset="0" style="stop-color:#00365A"/>
		<stop  offset="0.25" style="stop-color:#00365A"/>
		<stop  offset="0.5706" style="stop-color:#054E80"/>
		<stop  offset="0.7346" style="stop-color:#075B93"/>
		<stop  offset="0.8391" style="stop-color:#054E80"/>
		<stop  offset="1" style="stop-color:#054E80"/>
	</linearGradient>
	<path class="st2" d="M38.9,76c-0.3-0.1-1.4,0.6-2.6,1.4l-16.1,12c-1.6,12.2,8.5,19.1,22.1,11.1c2.6-1.4,5.2-2.9,7.7-4.4l-9.4-17.7
		C39.9,77.1,39.1,76.1,38.9,76z"/>
	<linearGradient id="SVGID_3_" gradientUnits="userSpaceOnUse" x1="48.8008" y1="-1.9552" x2="99.9776" y2="65.9587">
		<stop  offset="0" style="stop-color:#00365A"/>
		<stop  offset="0.25" style="stop-color:#00365A"/>
		<stop  offset="0.5706" style="stop-color:#054E80"/>
		<stop  offset="0.7346" style="stop-color:#075B93"/>
		<stop  offset="0.8391" style="stop-color:#054E80"/>
		<stop  offset="1" style="stop-color:#054E80"/>
	</linearGradient>
	<path class="st3" d="M84.9,41.4l-9.5,7c-1.1,0.8-1.3,2.4-0.2,3.4l15.9,15.9c10-7.4,11.3-17.5,4.8-25.9l-6.4-1.4
		C88.1,40.1,86,40.5,84.9,41.4z"/>
	<linearGradient id="SVGID_4_" gradientUnits="userSpaceOnUse" x1="23.4109" y1="14.4363" x2="75.4391" y2="83.48">
		<stop  offset="0" style="stop-color:#00365A"/>
		<stop  offset="0.25" style="stop-color:#00365A"/>
		<stop  offset="0.5706" style="stop-color:#054E80"/>
		<stop  offset="0.7346" style="stop-color:#075B93"/>
		<stop  offset="0.8391" style="stop-color:#054E80"/>
		<stop  offset="1" style="stop-color:#054E80"/>
	</linearGradient>
	<path class="st4" d="M71,54.9c-1-1-2.8-1.1-3.9-0.3L46.1,70.2c-1.1,0.8-0.9,1.8,0.5,2l30.9,5.7c3.2-2.3,6.3-4.7,9.4-7.1L71,54.9z"
		/>
	<linearGradient id="SVGID_5_" gradientUnits="userSpaceOnUse" x1="41.303" y1="0.5222" x2="94.3738" y2="70.9495">
		<stop  offset="0" style="stop-color:#00365A"/>
		<stop  offset="0.25" style="stop-color:#00365A"/>
		<stop  offset="0.5706" style="stop-color:#054E80"/>
		<stop  offset="0.7346" style="stop-color:#075B93"/>
		<stop  offset="0.8391" style="stop-color:#054E80"/>
		<stop  offset="1" style="stop-color:#054E80"/>
	</linearGradient>
	<path class="st5" d="M77.7,37.8l-18.5-4c-1.4-0.3-1.7,0.3-0.7,1.3l9.3,9.3c1,1,2.8,1.1,3.9,0.3l6.4-4.8
		C79.3,39.1,79.1,38.1,77.7,37.8z"/>
	<linearGradient id="SVGID_6_" gradientUnits="userSpaceOnUse" x1="24.0927" y1="13.5239" x2="76.6169" y2="83.2259">
		<stop  offset="0" style="stop-color:#00365A"/>
		<stop  offset="0.25" style="stop-color:#00365A"/>
		<stop  offset="0.5706" style="stop-color:#054E80"/>
		<stop  offset="0.7346" style="stop-color:#075B93"/>
		<stop  offset="0.8391" style="stop-color:#054E80"/>
		<stop  offset="1" style="stop-color:#054E80"/>
	</linearGradient>
	<path class="st6" d="M41.3,25.2L21.8,5.7c-2.4,4-2.5,10,0.6,16.8l18.1,3.9C42,26.8,42.3,26.2,41.3,25.2z"/>
	<linearGradient id="SVGID_7_" gradientUnits="userSpaceOnUse" x1="2.3245" y1="28.7302" x2="53.9674" y2="97.2626">
		<stop  offset="0" style="stop-color:#00365A"/>
		<stop  offset="0.25" style="stop-color:#00365A"/>
		<stop  offset="0.5706" style="stop-color:#054E80"/>
		<stop  offset="0.7346" style="stop-color:#075B93"/>
		<stop  offset="0.8391" style="stop-color:#054E80"/>
		<stop  offset="1" style="stop-color:#054E80"/>
	</linearGradient>
	<path class="st7" d="M35.1,68L26.6,52c0,5.4-0.4,10.9-1.1,16.2l8.3,1.5C35.1,70.1,35.7,69.2,35.1,68z"/>
	<linearGradient id="SVGID_8_" gradientUnits="userSpaceOnUse" x1="42.6647" y1="7.043552e-02" x2="96.1617" y2="71.0634">
		<stop  offset="0" style="stop-color:#00365A"/>
		<stop  offset="0.25" style="stop-color:#00365A"/>
		<stop  offset="0.5706" style="stop-color:#054E80"/>
		<stop  offset="0.7346" style="stop-color:#075B93"/>
		<stop  offset="0.8391" style="stop-color:#054E80"/>
		<stop  offset="1" style="stop-color:#054E80"/>
	</linearGradient>
	<path class="st8" d="M55,29.6l26.2,5.7c1.4,0.3,3.5-0.1,4.6-1l0.9-0.7C72.4,22.7,58.1,12.8,42.3,4.1c-6.8-4-12.8-4.2-16.8-2
		l25.1,25.1C51.6,28.2,53.6,29.3,55,29.6z"/>
	<linearGradient id="SVGID_9_" gradientUnits="userSpaceOnUse" x1="-5.1703" y1="36.0897" x2="44.4428" y2="101.9285">
		<stop  offset="0" style="stop-color:#00365A"/>
		<stop  offset="0.25" style="stop-color:#00365A"/>
		<stop  offset="0.5706" style="stop-color:#054E80"/>
		<stop  offset="0.7346" style="stop-color:#075B93"/>
		<stop  offset="0.8391" style="stop-color:#054E80"/>
		<stop  offset="1" style="stop-color:#054E80"/>
	</linearGradient>
	<path class="st9" d="M28.9,74.2l-4.3-0.8c-0.5,2.6-1.1,5.2-1.8,7.8l6.6-4.9C30.5,75.3,30.3,74.4,28.9,74.2z"/>
	<linearGradient id="SVGID_10_" gradientUnits="userSpaceOnUse" x1="20.6444" y1="15.4258" x2="72.4992" y2="84.2395">
		<stop  offset="0" style="stop-color:#00365A"/>
		<stop  offset="0.25" style="stop-color:#00365A"/>
		<stop  offset="0.5706" style="stop-color:#054E80"/>
		<stop  offset="0.7346" style="stop-color:#075B93"/>
		<stop  offset="0.8391" style="stop-color:#054E80"/>
		<stop  offset="1" style="stop-color:#054E80"/>
	</linearGradient>
	<path class="st10" d="M39.5,65.4c0.7,1.3,2.1,1.6,3.3,0.7l20.5-15.3c1.1-0.8,1.3-2.4,0.2-3.4L49.2,33.1c-1-1-3-2.1-4.4-2.4
		l-21.4-4.6c1.1,4.4,1.9,9,2.4,13.6L39.5,65.4z"/>
</g>
</svg>
